flaticon/interaction/bookmark-19.svg

<svg xmlns="http://www.w3.org/2000/svg" width="32" height="32" viewBox="0 0 24 24">
    <path d="M 17.359375 13.285156 C 14.523438 13.285156 12.214844 15.59375 12.214844 18.429688 C 12.214844 21.265625 14.523438 23.570312 17.359375 23.570312 C 20.195312 23.570312 22.5 21.265625 22.5 18.429688 C 22.5 15.59375 20.195312 13.285156 17.359375 13.285156 Z M 17.359375 22.714844 C 14.996094 22.714844 13.070312 20.792969 13.070312 18.429688 C 13.070312 16.066406 14.996094 14.144531 17.359375 14.144531 C 19.71875 14.144531 21.644531 16.066406 21.644531 18.429688 C 21.644531 20.792969 19.71875 22.714844 17.359375 22.714844 Z M 17.359375 22.714844"/>
    <path d="M19.929688 18L17.785156 18 17.785156 15.859375C17.785156 15.621094 17.59375 15.429688 17.359375 15.429688 17.121094 15.429688 16.929688 15.621094 16.929688 15.859375L16.929688 18.429688C16.929688 18.664062 17.121094 18.859375 17.359375 18.859375L19.929688 18.859375C20.164062 18.859375 20.359375 18.664062 20.359375 18.429688 20.359375 18.191406 20.164062 18 19.929688 18zM8.785156 16.445312L2.355469 22.875 2.355469 5.570312 15.214844 5.570312 15.214844 11.570312C15.214844 11.808594 15.40625 12 15.644531 12 15.878906 12 16.070312 11.808594 16.070312 11.570312L16.070312 0 1.5 0 1.5 23.332031C1.5 23.605469 1.660156 23.84375 1.910156 23.949219 1.992188 23.984375 2.082031 24 2.167969 24 2.339844 24 2.511719 23.933594 2.636719 23.804688L8.785156 17.65625 10.242188 19.113281C10.410156 19.28125 10.683594 19.28125 10.847656 19.113281 11.015625 18.945312 11.015625 18.675781 10.847656 18.507812zM2.355469.855469L15.214844.855469 15.214844 4.714844 2.355469 4.714844zM2.355469.855469"/>
</svg>

<svg xmlns="http://www.w3.org/2000/svg" width="32" height="32" viewBox="0 0 24 24">
    <path d="M17.36 13.285a5.151 5.151 0 0 0-5.145 5.145 5.148 5.148 0 0 0 5.144 5.14 5.145 5.145 0 0 0 5.141-5.14 5.148 5.148 0 0 0-5.14-5.145zm0 9.43a4.293 4.293 0 0 1-4.29-4.285 4.293 4.293 0 0 1 4.29-4.285 4.292 4.292 0 0 1 4.285 4.285 4.292 4.292 0 0 1-4.286 4.285zm0 0"/>
    <path d="M19.93 18h-2.145v-2.14a.428.428 0 1 0-.855 0v2.57c0 .234.191.43.43.43h2.57c.234 0 .43-.196.43-.43a.43.43 0 0 0-.43-.43zm0 0M8.785 16.445l-6.43 6.43V5.57h12.86v6a.428.428 0 1 0 .855 0V0H1.5v23.332a.664.664 0 0 0 1.137.473l6.148-6.149 1.457 1.457a.427.427 0 0 0 .606 0 .427.427 0 0 0 0-.605zM2.355.855h12.86v3.86H2.355zm0 0"/>
</svg>
